third_party/noto/noto_2/emoji_u2640.svg

<svg enable-background="new 0 0 128 128" version="1.1" viewBox="0 0 128 128" xmlns="http://www.w3.org/2000/svg"><path d="m101.49 44.51c0-21.5-17.87-38.91-39.55-38.1-19.68 0.82-35.73 16.69-36.64 36.38-0.91 19.32 12.7 35.65 30.84 39.18v11.64h-15.78c-2 0-3.63 1.63-3.63 3.63v7.26c0 2 1.63 3.63 3.63 3.63h15.78v12.85c0 2 1.63 3.63 3.63 3.63h7.26c2 0 3.63-1.63 3.63-3.63v-12.85h15.78c2 0 3.63-1.63 3.63-3.63v-7.26c0-2-1.63-3.63-3.63-3.63h-15.79v-11.73c17.6-3.35 30.84-18.77 30.84-37.37zm-61.22-0.41c0.19-16.02 12.77-22.66 23.13-22.45 12.77 0.26 23.09 9.27 22.86 22.86-0.22 12.61-10.25 22.86-22.86 22.86s-23.3-9.12-23.13-23.27z" fill="#9F0CC4"/><path d="m101.5 41.24c0-21.5-17.87-38.91-39.55-38.1-19.68 0.82-35.74 16.7-36.64 36.38-0.91 19.32 12.69 33.65 30.84 37.19v13.64h-15.78c-2 0-3.63 1.63-3.63 3.63v6.26c0 2 1.71 3.15 3.7 3.15h15.78l-0.07 13.33c0 2 1.63 3.63 3.63 3.63h7.26c2 0 3.63-1.63 3.63-3.63l0.07-13.33h15.78c2 0 3.56-1.16 3.56-3.15v-6.26c0-2-1.63-3.63-3.63-3.63h-15.79v-13.74c17.6-3.35 30.84-16.77 30.84-35.37zm-61.23-0.41c-0.01-14.91 10-23.9 23.02-23.9 14.73 0 23.34 11.57 23.07 24.97-0.24 12.61-10.35 22.2-22.96 22.2s-23.12-9.12-23.13-23.27z" fill="#C71FFF"/><path d="m36.99 18.34c4.03-4.9 11.42-10.36 19.56-11.31 2.01-0.26 4.01-0.25 5.7 0.47 1.25 0.52 2.27 1.84 1.48 3.16-0.6 1.06-3.14 1.72-4.33 2.03-4.19 0.85-7.65 1.91-10.44 3.5-3.71 2.12-7.33 6.09-8.99 8.72-3.16 4.99-5.16 8.63-7.42 6.78-2.2-1.66 0.32-8.35 4.44-13.35z" enable-background="new" fill="#fff" opacity=".3"/><path d="m48.37 92.81c0-0.74-0.45-0.99-3.13-0.82-2.23 0.08-4.83 0.41-5.5 1.24-0.67 0.91-0.82 2.72-0.89 4.86 0 1.57 0 2.97 0.74 2.97 1.04 0 1.04-2.55 1.79-3.95 1.49-2.65 6.99-3.31 6.99-4.3z" enable-background="new" fill="#fff" opacity=".3"/><path d="m58.64 109.25c-0.82 0-1.09 0.46-0.91 3.25 0.09 2.32 0.27 4.25 1.18 4.95 1 0.7 3.18 0.81 5.53 0.89 1.72 0 2.52 0.04 2.52-0.73 0-1.08-1.51-0.26-4.23-2.44-2.71-2.17-3.09-5.92-4.09-5.92z" enable-background="new" fill="#fff" opacity=".3"/></svg>

<?xml version="1.0" encoding="utf-8"?>
<!-- Generator: Adobe Illustrator 25.2.3, SVG Export Plug-In . SVG Version: 6.00 Build 0)  -->
<svg version="1.1" id="Layer_1" xmlns="http://www.w3.org/2000/svg" xmlns:xlink="http://www.w3.org/1999/xlink" x="0px" y="0px"
	 viewBox="0 0 128 128" style="enable-background:new 0 0 128 128;" xml:space="preserve">
<path style="fill:#9F0CC4;" d="M101.49,44.51c0-21.5-17.87-38.91-39.55-38.1C42.26,7.23,26.21,23.1,25.3,42.79
	C24.39,62.11,38,78.44,56.14,81.97v11.64H40.36c-2,0-3.63,1.63-3.63,3.63v7.26c0,2,1.63,3.63,3.63,3.63h15.78v12.85
	c0,2,1.63,3.63,3.63,3.63h7.26c2,0,3.63-1.63,3.63-3.63v-12.85h15.78c2,0,3.63-1.63,3.63-3.63v-7.26c0-2-1.63-3.63-3.63-3.63H70.65
	V81.88C88.25,78.53,101.49,63.11,101.49,44.51z M40.27,44.1c0.19-16.02,12.77-22.66,23.13-22.45c12.77,0.26,23.09,9.27,22.86,22.86
	C86.04,57.12,76.01,67.37,63.4,67.37S40.1,58.25,40.27,44.1z"/>
<path style="fill:#C71FFF;" d="M101.5,41.24c0-21.5-17.87-38.91-39.55-38.1C42.27,3.96,26.21,19.84,25.31,39.52
	C24.4,58.84,38,73.17,56.15,76.71v13.64H40.37c-2,0-3.63,1.63-3.63,3.63v6.26c0,2,1.71,3.15,3.7,3.15h15.78l-0.07,13.33
	c0,2,1.63,3.63,3.63,3.63h7.26c2,0,3.63-1.63,3.63-3.63l0.07-13.33h15.78c2,0,3.56-1.16,3.56-3.15v-6.26c0-2-1.63-3.63-3.63-3.63
	H70.66V76.61C88.26,73.26,101.5,59.84,101.5,41.24z M40.27,40.83c-0.01-14.91,10-23.9,23.02-23.9c14.73,0,23.34,11.57,23.07,24.97
	C86.12,54.51,76.01,64.1,63.4,64.1S40.28,54.98,40.27,40.83z"/>
<path style="opacity:0.3;fill:#FFFFFF;enable-background:new    ;" d="M36.99,18.34c4.03-4.9,11.42-10.36,19.56-11.31
	c2.01-0.26,4.01-0.25,5.7,0.47c1.25,0.52,2.27,1.84,1.48,3.16c-0.6,1.06-3.14,1.72-4.33,2.03c-4.19,0.85-7.65,1.91-10.44,3.5
	c-3.71,2.12-7.33,6.09-8.99,8.72c-3.16,4.99-5.16,8.63-7.42,6.78C30.35,30.03,32.87,23.34,36.99,18.34z"/>
<path style="opacity:0.3;fill:#FFFFFF;enable-background:new    ;" d="M48.37,92.81c0-0.74-0.45-0.99-3.13-0.82
	c-2.23,0.08-4.83,0.41-5.5,1.24c-0.67,0.91-0.82,2.72-0.89,4.86c0,1.57,0,2.97,0.74,2.97c1.04,0,1.04-2.55,1.79-3.95
	C42.87,94.46,48.37,93.8,48.37,92.81z"/>
<path style="opacity:0.3;fill:#FFFFFF;enable-background:new    ;" d="M58.64,109.25c-0.82,0-1.09,0.46-0.91,3.25
	c0.09,2.32,0.27,4.25,1.18,4.95c1,0.7,3.18,0.81,5.53,0.89c1.72,0,2.52,0.04,2.52-0.73c0-1.08-1.51-0.26-4.23-2.44
	C60.02,113,59.64,109.25,58.64,109.25z"/>
</svg>
